X: 9
T: 9. Cupid's Attack on Old Maids
M: 6/8
L: 1/8
Q: 3/8=130
K: Dm
cea gec | def c2 A | BBB AAA | FcB B2 A | cea gec | def c2 A | Bbb Aaf | deg f2 :|!
|:a | bBb aAa | gGg f2 c | def cBA | AGG G2 a |  bBb aAa | gGg f2 c | def ebg | aff f2 :|!

